!!!COA:	Josquin des Prez
!!!CDT:	~1450-1521/08/27
!!!OTL@@LAT:	Obsecro te, domina
!!!AGN:	Motet
!!!SCT:	NJE 24.8
!!!SCA:	New Josquin Edition 24.8
!!!SMS: Valderr&aacute;bano 1547
!!!voices:	5
**kern	**kern	**kern	**kern	**kern
*staff5	*staff4	*staff3	*staff2	*staff1
*I"Bassus	*I"Quintus	*I"Tenor	*I"Altus	*I"Superius
*I'B	*I'Q	*I'T	*I'A	*I'S
*clefF4	*clefGv2	*clefGv2	*clefGv2	*clefG2
*k[]	*k[]	*k[]	*k[]	*k[]
*M2/1	*M2/1	*M2/1	*M2/1	*M2/1
*met(C|)	*met(C|)	*met(C|)	*met(C|)	*met(C|)
=1-	=1-	=1-	=1-	=1-
!	!	!	!	!LO:TX:Z=10:t=[Reconstruction based on vihuela intabulation by Enriquez de Valderr&aacute;bano]
0r	0r	[0A	1A	0r
.	.	.	[1c	.
=2	=2	=2	=2	=2
0r	1r	0A]	2c\]	0r
.	.	.	2c\	.
.	1A	.	1F	.
=3	=3	=3	=3	=3
0r	1.c	[0A	0r	0r
.	2c\	.	.	.
=4	=4	=4	=4	=4
1D	1F	0A]	1A	0r
2C/	[1A	.	[1c	.
2AA/	.	.	.	.
=5	=5	=5	=5	=5
1AA	2A/]	[0A	2c\]	1r
.	2A/	.	2c\	.
1D	2D/	.	1F	1a
.	2d\	.	.	.
=6	=6	=6	=6	=6
2C/	0e	0A_	0r	1.cc
2AA/	.	.	.	.
1AA	.	.	.	.
.	.	.	.	2cc\
=7	=7	=7	=7	=7
1D	1.d	0A_	2r	1f
.	.	.	2d\	.
1AA	.	.	1e	[1a
.	2c#\	.	.	.
=8	=8	=8	=8	=8
1.D	0d	0A_	0f	2a/]
.	.	.	.	2a/
.	.	.	.	2d/
2D\	.	.	.	[2dd\
=9	=9	=9	=9	=9
0AA	1r	0A_	0e	2dd\]
.	.	.	.	4cc#\
.	.	.	.	4b\
.	1e	.	.	1cc#
=10	=10	=10	=10	=10
0D	0f	0A]	2d\	2dd\
.	.	.	2D/	1ff
.	.	.	2F/	.
.	.	.	2G/	4ee\
.	.	.	.	4dd\
=11	=11	=11	=11	=11
0AA	0e	[0c	2.A/	4cc\
.	.	.	.	4a/
.	.	.	.	1cc
.	.	.	4G#/	.
.	.	.	4A/	.
.	.	.	4B\	.
.	.	.	4c\	4b\
.	.	.	4d\	4a/
=12	=12	=12	=12	=12
1r	1r	0c_	2e\	2g/
.	.	.	1f	2f/
1C	1c	.	.	1g
.	.	.	2e\	.
=13	=13	=13	=13	=13
1.F	1.A	0c_	1f	1f
.	.	.	1r	1r
2F\	2A/	.	.	.
=14	=14	=14	=14	=14
2E\	2G/	0c]	1r	1r
1F	2F/	.	.	.
.	1G	.	1c	1g
2E\	.	.	.	.
=15	=15	=15	=15	=15
0F	0F	[0c	1.f	1.a
.	.	.	2f\	2a/
=16	=16	=16	=16	=16
1r	1r	0c_	2e\	2g/
.	.	.	1f	2f/
1C	1G	.	.	1g
.	.	.	2e\	.
=17	=17	=17	=17	=17
1.F	1.A	0c_	0f	0f
2F\	2A/	.	.	.
=18	=18	=18	=18	=18
2E\	2G/	0c]	1g	0r
2D\	2F/	.	.	.
1E	1G	.	1g	.
=19	=19	=19	=19	=19
[0D	1A	[0d	0f	2r
.	.	.	.	2a/
.	2r	.	.	[1dd
.	2A/	.	.	.
=20	=20	=20	=20	=20
0D]	1.d	0d_	0r	2dd\]
.	.	.	.	2cc\
.	.	.	.	2b-i\
.	2c\	.	.	2a/
=21	=21	=21	=21	=21
0r	2B-i\	0d_	0r	2g/
.	2A/	.	.	2a/
.	2G/	.	.	2b-\
.	2A/	.	.	[2a/
=22	=22	=22	=22	=22
0r	0B-	0d]	1r	2a/]
.	.	.	.	4g/
.	.	.	.	4f/
.	.	.	2r	1g
.	.	.	[2d\	.
=23	=23	=23	=23	=23
0r	0A	0e	2d\]	0a
.	.	.	4c#\	.
.	.	.	4B\	.
.	.	.	1c#	.
=24	=24	=24	=24	=24
1r	0D	[0d	1d	0r
2r	.	.	1f	.
[2d\	.	.	.	.
=25	=25	=25	=25	=25
4d\]	0r	0d]	1.f	0r
4c\	.	.	.	.
4B-\	.	.	.	.
4A\	.	.	.	.
1B-i	.	.	.	.
.	.	.	2g\	.
=26	=26	=26	=26	=26
1A	2r	0c#	0e	2r
.	1A	.	.	1a
1AA	.	.	.	.
.	2A/	.	.	[2a/
=27	=27	=27	=27	=27
1r	0B-	0d	0r	2a/]
.	.	.	.	4g/
.	.	.	.	4f/
2r	.	.	.	1g
[2d\	.	.	.	.
=28	=28	=28	=28	=28
2d\]	0A	0e	0r	0a
4c#\	.	.	.	.
4B\	.	.	.	.
1c#i	.	.	.	.
=29	=29	=29	=29	=29
1.d	0D	0f	0r	1a
.	.	.	.	[1dd
2c\	.	.	.	.
=30	=30	=30	=30	=30
2B-i\	0r	[0d	0r	2dd\]
2A\	.	.	.	2cc\
2G\	.	.	.	2b-i\
2A\	.	.	.	[2a/
=31	=31	=31	=31	=31
0B-	0r	0d]	2r	2a/]
.	.	.	1d	4g/
.	.	.	.	4f/
.	.	.	.	1g
.	.	.	2d\	.
=32	=32	=32	=32	=32
0A	2r	0c#	1e	1a
.	1A	.	.	.
.	.	.	1e	1a
.	2G/	.	.	.
=33	=33	=33	=33	=33
0D	2F/	0d	2r	2.a/
.	2E/	.	1a	.
.	.	.	.	4g/
.	1D	.	.	2f/
.	.	.	2g\	2e/
=34	=34	=34	=34	=34
0r	1.d	[0f	2f\	0d
.	.	.	2e\	.
.	.	.	1d	.
.	2c\	.	.	.
=35	=35	=35	=35	=35
2r	2B-i\	0f]	2.d\	0dd
1D	2A/	.	.	.
.	.	.	4c\	.
.	2d\	.	2B-i\	.
2D\	2c\	.	2A/	.
=36	=36	=36	=36	=36
2G\	4B-i\	0g	0G	1r
.	4A/	.	.	.
2F\	1d	.	.	.
1E	.	.	.	1ee
.	2c#\	.	.	.
=37	=37	=37	=37	=37
0D	2.d\	0f	1A	2.ff\
.	4c\	.	.	4ee\
.	2B-i\	.	2r	2dd\
.	2A/	.	2A/	2cc\
=38	=38	=38	=38	=38
1r	2G/	0r	4B-i\	2b-i\
.	.	.	4A/	.
.	2F/	.	1d	2a/
1G	1E	.	.	1g
.	.	.	2c#\	.
=39	=39	=39	=39	=39
0A	[0D	[0f	[0d	0f
=40	=40	=40	=40	=40
1r	0D]	0f_	1d]	1r
2r	.	.	2r	1ff
2d\	.	.	2d\	.
=41	=41	=41	=41	=41
1A	1r	0f_	1a	1cc
2.B-\	2r	.	1d	1dd
.	2d\	.	.	.
4A\	.	.	.	.
=42	=42	=42	=42	=42
1F	1A	0f]	1a	1cc
2r	2.B-\	.	2r	2r
2d\	.	.	2d\	2ff\
.	4A/	.	.	.
=43	=43	=43	=43	=43
1A	1F	[0f	1a	1cc
2.B-\	2r	.	1d	1dd
.	2d\	.	.	.
4A\	.	.	.	.
=44	=44	=44	=44	=44
1F	1A	0f]	1a	1cc
2r	2.B-\	.	2r	2r
2d\	.	.	2d\	2ff\
.	4A/	.	.	.
=45	=45	=45	=45	=45
1A	1F	[0f	1a	1cc
2.B-\	2r	.	1d	1b-
.	2d\	.	.	.
4A\	.	.	.	.
=46	=46	=46	=46	=46
1F	1A	0f_	1a	1a
2r	2.B-\	.	2r	1r
[2d\	.	.	[2f\	.
.	4A/	.	.	.
=47	=47	=47	=47	=47
2d\]	2F/	0f]	2f\]	0r
2c\	2A/	.	2e\	.
2B-\	2D/	.	2d\	.
2A\	2D/	.	2c\	.
=48	=48	=48	=48	=48
2G\	2E/	0g	4B-i\	0r
.	.	.	4A/	.
2F\	2F/	.	1d	.
1E	1G	.	.	.
.	.	.	2c#\	.
=49	=49	=49	=49	=49
0D	1A	[0f	0d	1.a
.	[1d	.	.	.
.	.	.	.	2g/
=50	=50	=50	=50	=50
0r	2d\]	0f]	0r	2f/
.	2c\	.	.	2e/
.	2B-\	.	.	2d/
.	2A/	.	.	2c/
=51	=51	=51	=51	=51
0r	2G/	0g	0r	4B/
.	.	.	.	4A/
.	2F/	.	.	1d
.	1E	.	.	.
.	.	.	.	2c#/
=52	=52	=52	=52	=52
1.A	[0D	[0f	1r	0d
.	.	.	[1a	.
2G\	.	.	.	.
=53	=53	=53	=53	=53
2F\	0D]	0f]	2a\]	1.d
2E\	.	.	2g\	.
2D\	.	.	2f\	.
2F\	.	.	[2a\	2d/
=54	=54	=54	=54	=54
4E\	0r	0g	2a\]	2.e/
4D\	.	.	.	.
1d	.	.	2d\	.
.	.	.	.	4f/
.	.	.	1e	2.g/
2c#\	.	.	.	.
.	.	.	.	4a/
=55	=55	=55	=55	=55
0d	1.D	[0f	0d	2b-\
.	.	.	.	2a/
.	.	.	.	1a
.	2D/	.	.	.
=56	=56	=56	=56	=56
1D	2F/	0f_	1d	1a
.	2D/	.	.	.
2D\	[1F	.	2d\	2a/
2D\	.	.	2d\	2a/
=57	=57	=57	=57	=57
1D	2F/]	0f]	1d	1a
.	4E/	.	.	.
.	4D/	.	.	.
1D	2F/	.	1d	1a
.	2G/	.	.	.
=58	=58	=58	=58	=58
[0AA	[0A	[0e	1c	1cc
.	.	.	2r	2r
.	.	.	2c\	2a/
=59	=59	=59	=59	=59
1AA]	1A]	0e]	2.e\	2.cc\
.	.	.	4d\	4b\
1r	1r	.	2c\	2a/
.	.	.	2B\	2g#i/
=60	=60	=60	=60	=60
0r	0r	1c	1.A	2a/
.	.	.	.	2r
.	.	1c	.	[1ee
.	.	.	2A/	.
=61	=61	=61	=61	=61
0r	0r	1f	0a	2ee\]
.	.	.	.	4dd\
.	.	.	.	4cc\
.	.	1f	.	1dd
=62	=62	=62	=62	=62
0E	2B\	0e	0g	0ee
.	2c\	.	.	.
.	2B\	.	.	.
.	[2e\	.	.	.
=63	=63	=63	=63	=63
0F	2e\]	0A	0r	0r
.	4d\	.	.	.
.	4c\	.	.	.
.	1d	.	.	.
=64	=64	=64	=64	=64
0E	0e	0G	2r	1r
.	.	.	1e	.
.	.	.	.	2r
.	.	.	2e\	[2b\
=65	=65	=65	=65	=65
0r	0r	0r	1.g	2b\]
.	.	.	.	2b\
.	.	.	.	2.dd\
.	.	.	2d\	.
.	.	.	.	8cc\L
.	.	.	.	8b\J
=66	=66	=66	=66	=66
0r	0r	0r	1f	2.a/
.	.	.	.	4b\
.	.	.	2.e\	2.cc\
.	.	.	4d\	4b\
=67	=67	=67	=67	=67
0r	0r	0r	2c\	2a/
.	.	.	2B\	2g#/
.	.	.	[1A	[1a
=68	=68	=68	=68	=68
1r	2r	0r	0A]	0a]
.	1e	.	.	.
2r	.	.	.	.
2c\	2e\	.	.	.
=69	=69	=69	=69	=69
2.G\	2.g\	0r	0r	0r
4A\	8f\L	.	.	.
.	8e\J	.	.	.
1B-	2.d\	.	.	.
.	4e\	.	.	.
=70	=70	=70	=70	=70
2.A\	2.f\	0r	0r	0r
4G\	4e\	.	.	.
2F\	2d\	.	.	.
2E\	2c#\	.	.	.
=71	=71	=71	=71	=71
0D	0d	0r	2r	1r
.	.	.	2d\	.
.	.	.	1f	2r
.	.	.	.	2a/
=72	=72	=72	=72	=72
0r	0r	0r	1e	1cc
.	.	.	2.g\	2b\
.	.	.	.	2dd\
.	.	.	4f\	.
=73	=73	=73	=73	=73
0r	0r	0r	2.e\	2.cc\
.	.	.	4d\	4b\
.	.	.	2c\	2a/
.	.	.	2B\	2g#/
=74	=74	=74	=74	=74
2r	1r	0r	0A	0a
2A\	.	.	.	.
1c	2r	.	.	.
.	2e\	.	.	.
=75	=75	=75	=75	=75
1G	2.g\	0r	0r	0r
.	8f\L	.	.	.
.	8e\J	.	.	.
1B-	2.d\	.	.	.
.	4e\	.	.	.
=76	=76	=76	=76	=76
2.A\	2.f\	0r	0r	0r
4G\	4e\	.	.	.
2F\	2d\	.	.	.
2E\	2c#\	.	.	.
=77	=77	=77	=77	=77
0D	1d	1f	0r	0r
.	2r	1f	.	.
.	2A/	.	.	.
=78	=78	=78	=78	=78
0r	1.B-	1d	2r	0r
.	.	.	2d\	.
.	.	1d	[1f	.
.	[2B-i\	.	.	.
=79	=79	=79	=79	=79
0r	2B-\]	1d	2f\]	0r
.	2A/	.	2f\	.
.	1G	1d	1g	.
=80	=80	=80	=80	=80
2r	[0F	0f	1a	2r
2F\	.	.	.	2a/
[1A	.	.	1a	[1cc
=81	=81	=81	=81	=81
2A\]	0F]	0f	2r	2cc\]
1A	.	.	2a\	2cc\
.	.	.	2f\	1dd
2F\	.	.	2a\	.
=82	=82	=82	=82	=82
1E	2B\	0g	2.g\	1.ee
.	2G/	.	.	.
.	.	.	4f\	.
2E\	1B	.	4e\	.
.	.	.	4d\	.
[2G\	.	.	[2e\	2ee\
=83	=83	=83	=83	=83
4G\]	0G	0g	4e\]	1ee
4F\	.	.	4d\	.
4E\	.	.	1d	.
4D\	.	.	.	.
1E	.	.	.	1ee
.	.	.	2c#\	.
=84	=84	=84	=84	=84
2D\	2A/	0f	1d	2.ff\
2A\	1D	.	.	.
.	.	.	.	4ee\
2B-\	.	.	2r	2dd\
4A\	2F/	.	2A/	4cc\
4G\	.	.	.	4b-i\
=85	=85	=85	=85	=85
1F	2.F/	0f	2.A/	1a
.	8G/L	.	8B-i\L	.
.	8A/J	.	8c\J	.
2r	2B-\	.	2d\	2r
2F\	2A/	.	2c\	2a/
=86	=86	=86	=86	=86
2.F\	1F	[0f	1A	2.a/
8G\L	.	.	.	8b-i\L
8A\J	.	.	.	8cc\J
2B-\	2r	.	2r	2dd\
2A\	2F/	.	2A/	2cc\
=87	=87	=87	=87	=87
1F	2.F/	0f]	2.A/	1a
.	8G/L	.	8B-i\L	.
.	8A/J	.	8c\J	.
2r	2B-\	.	2d\	2r
2F\	2A/	.	2c\	2a/
=88	=88	=88	=88	=88
2.F\	1F	[0f	1A	2.a/
8G\L	.	.	.	8b-i\L
8A\J	.	.	.	8cc\J
2B-\	2r	.	2r	2dd\
2A\	2F/	.	2A/	2cc\
=89	=89	=89	=89	=89
1F	2.F/	0f]	2.A/	1a
.	8G/L	.	8B-i\L	.
.	8A/J	.	8c\J	.
2r	2B-\	.	2d\	2r
2F\	2A/	.	2c\	2a/
=90	=90	=90	=90	=90
2.F\	1F	0f	1A	2.a/
8G\L	.	.	.	8b-i\L
8A\J	.	.	.	8cc\J
2B-\	2r	.	2r	2dd\
2A\	2F/	.	[2a\	2cc\
=91	=91	=91	=91	=91
1D	2A/	0r	4a\]	1f
.	.	.	4g\	.
.	2B\	.	1f	.
1C	2.c\	.	.	1g
.	.	.	2e\	.
.	4B-i\	.	.	.
=92	=92	=92	=92	=92
0F	0A	[0c	1f	0f
.	.	.	1f	.
=93	=93	=93	=93	=93
1.A	1r	0c]	1e	0r
.	[1A	.	[1A	.
2A\	.	.	.	.
=94	=94	=94	=94	=94
0D	2A/]	[0f	1A]	1.a
.	2A/	.	.	.
.	[1D	.	[1a	.
.	.	.	.	2a/
=95	=95	=95	=95	=95
0r	1D]	0f]	2a\]	0d
.	.	.	2a\	.
.	1r	.	1d	.
=96	=96	=96	=96	=96
1G	1r	0g	1B	1dd
1E	1G	.	1c	1ee
=97	=97	=97	=97	=97
1D	1A	0f	1d	1a
1F	1D	.	1a	2dd\
.	.	.	.	2cc\
=98	=98	=98	=98	=98
2G\	0r	0d	2g\	2b-i\
2A\	.	.	2f\	1a
1B-	.	.	1d	.
.	.	.	.	2g/
=99	=99	=99	=99	=99
1A	2r	0c	1e	1a
.	1A	.	.	.
1AA	.	.	[1a	1r
.	2A/	.	.	.
=100	=100	=100	=100	=100
0r	1B-	0d	2a\]	0r
.	.	.	4g\	.
.	.	.	4f\	.
.	1B-i	.	1g	.
=101	=101	=101	=101	=101
2r	2.A/	0e	0a	2r
1A	.	.	.	2a/
.	4B-\	.	.	.
.	1c#	.	.	1a
2A\	.	.	.	.
=102	=102	=102	=102	=102
0D	2d\	0f	1.a	1a
.	2D/	.	.	.
.	1F	.	.	2dd\
.	.	.	2a\	2cc\
=103	=103	=103	=103	=103
1d	2G/	1d	2g\	2b-i\
.	2A/	.	1f	1a
1d	1B-	1d	.	.
.	.	.	2e\	2g/
=104	=104	=104	=104	=104
1c	2.F/	0f	1f	1a
.	4E/	.	.	.
1F	1D	.	2r	2dd\
.	.	.	2a\	2cc\
=105	=105	=105	=105	=105
2G\	0r	0d	2g\	2b-i\
2A\	.	.	1f	1a
1B-	.	.	.	.
.	.	.	2e\	2g/
=106	=106	=106	=106	=106
1.F	0r	[0f	0c	1a
.	.	.	.	1a
2F\	.	.	.	.
=107	=107	=107	=107	=107
0D	1A	0f]	0d	1.dd
.	[1d	.	.	.
.	.	.	.	2cc\
=108	=108	=108	=108	=108
0r	2d\]	[0d	0r	2b-i\
.	2c\	.	.	2a/
.	2B-i\	.	.	2g/
.	2A/	.	.	2f/
=109	=109	=109	=109	=109
0r	2G/	0d]	0r	2b-i\
.	2F/	.	.	1a
.	1B-	.	.	.
.	.	.	.	2g/
=110	=110	=110	=110	=110
0r	1.A	0c	1r	0a
.	.	.	1e	.
.	2A/	.	.	.
=111	=111	=111	=111	=111
1D	1A	0f	1.a	1r
[1d	1D	.	.	1d
.	.	.	2g\	.
=112	=112	=112	=112	=112
2d\]	0r	[0d	2f\	2.a/
2c\	.	.	2e\	.
.	.	.	.	4g/
2B-\	.	.	2d\	2f/
2A\	.	.	2c\	[2f/
=113	=113	=113	=113	=113
2G\	2d\	0d]	2B-i\	4f/]
.	.	.	.	4g/
2F\	1f	.	2A/	1a
1B-	.	.	1d	.
.	4e\	.	.	2g/
.	4d\	.	.	.
=114	=114	=114	=114	=114
1A	2c#\	0e	1r	0a
.	1d	.	.	.
1AA	.	.	[1A	.
.	2c#i\	.	.	.
=115	=115	=115	=115	=115
1D	2d\	0f	1A]	1.a
.	1d	.	.	.
1D	.	.	1a	.
.	[2c\	.	.	2a/
=116	=116	=116	=116	=116
0E	2c\]	[0el	2e\	1ee
.	4B\	.	1a	.
.	4A/	.	.	.
.	1B	.	.	4ee\
.	.	.	.	4dd\
.	.	.	2g#\	4cc#\
.	.	.	.	4b\
=117	=117	=117	=117	=117
[0AAl	[0Al	0e_	0a	[0cc#l
=118	=118	=118	=118	=118
0AA]	0A]	0e]	0el	0cc#]
==	==	==	==	==
*-	*-	*-	*-	*-
!!!RDF**kern: l=long note in original notation
!!!RDF**kern: i=editorial accidental
!!!ENC:	Will Watson 18/08/2011
!!!END:	2011/08/18/
!!!EED:	Jesse Rodin
!!!EEV:	2011/12/16/
!!attribution-level@Jos: 4 (questionable)
!!!ONB:	Translated from MusicXML and edited on 2011/12/16/ by Craig Sapp
!!muse2ps: C^@{COA}?\n@{SCT}^i2I150v95,95,95,95,130c100Q16
